X: 14001
T: Frank Neylon's
R: reel
M: 4/4
K: Adorian
efed cAAB|c2ec dBG2|efed cdeg|1 gage dAcd:|2 gage dcAB||
c2gc acgc|c2ge dcAB|c2gc acgc|1 eage dcAB:|2 eage d4||

